**kern	**kern	**kern	**kern	**kern	**kern	**kern	**kern	**kern	**kern
*staff10	*staff9	*staff8	*staff7	*staff6	*staff5	*staff4	*staff3	*staff2	*staff1
*clefC4	*clefC3	*clefG2	*clefG2	*clefG2	*clefF4	*clefG2	*clefG2	*clefG2	*clefG2
*k[f#c#]	*k[f#c#]	*k[f#c#]	*k[f#c#]	*k[]	*k[f#c#]	*k[b-]	*k[b-]	*k[f#c#]	*k[f#c#]
*M4/4	*M4/4	*M4/4	*M4/4	*M4/4	*M4/4	*M4/4	*M4/4	*M4/4	*M4/4
*^	*	*	*	*	*	*	*	*	*
4A'/	2.r	4c#'\ 4e'\	4A'/ 4g'/	(8bb\L	4g\ 4dd\	4A\	2.b-\	(8dd\L	2.cc#'\	(8bb\L
.	.	.	.	8aa\)	.	.	.	8cc\)	.	8aa\)
4A'/	.	4c#'\ 4e'\	4A'/ 4g'/	(8bb\	4g\ 4dd\	4A\	.	(8dd\	.	(8bb\
.	.	.	.	8aa\	.	.	.	8cc\)	.	8aa\
4A/	.	4c#'\ 4e'\	4A'/ 4g'/	(8bb\)	4g\ 4dd\	4A\	.	(8dd\	.	(8bb\)
.	.	.	.	8aa\J)	.	.	.	8cc\J)	.	8aa\J)
=1	=1	=1	=1	=1	=1	=1	=1	=1	=1	=1
4d/	2.r	4d\	4A/ 4f#/	8ddd\L	4cc\ 4ee\	4d\	[2.a/	8ff\L	[2.dd\	8ddd\L
.	.	.	.	8ccc#\	.	.	.	8ee\	.	8ccc#\
4d/	.	4d\	4A/ 4f#/	8bb\	4cc\ 4ee\	4d\	.	8dd\	.	8bb\
.	.	.	.	8aa\	.	.	.	8cc\	.	8aa\
4d/	.	4d\	4A/ 4f#/	8gg\	4cc\ 4ee\	4d\	.	8b-\	.	8gg\
.	.	.	.	8ff#\J	.	.	.	8a\J	.	8ff#\J
*v	*v	*	*	*	*	*	*	*	*	*
=2	=2	=2	=2	=2	=2	=2	=2	=2	=2
4d/	4d\	4A/ 4f#/	8bb\L	4cc\ 4ee\	4d\	2.a/]	8dd/L	2.dd\]	8bb\L
.	.	.	8aa\	.	.	.	8cc/	.	8aa\
4d/	4d\	4A/ 4f#/	8gg\	4cc\ 4ee\	4d\	.	8b-/	.	8gg\
.	.	.	8ff#\	.	.	.	8a/	.	8ff#\
4d/	4d\	4A/ 4f#/	8ee\	4cc\ 4ee\	4d\	.	8g/	.	8ee\
.	.	.	8dd\J	.	.	.	8f/J	.	8dd\J
*clefF4	*	*	*	*	*	*	*	*	*
=3	=3	=3	=3	=3	=3	=3	=3	=3	=3
4A\	4c#\ 4e\	4A/ 4g/	4a'/	4g\ 4dd\	4A\	[2.b-\	[2.g/	[2.a/	4a'/
4A\	4c#\ 4e\	4A/ 4g/	4b'\	4g\ 4dd\	4A\	.	.	.	4b'\
4A\	4c#\ 4e\	4A/ 4g/	4cc#'\	4g\ 4dd\	4A\	.	.	.	4cc#'\
=4	=4	=4	=4	=4	=4	=4	=4	=4	=4
4A\	4c#\ 4e\	4A/ 4g/	4a'/	4g\ 4dd\	4A\	2.b-\]	2.g/]	2.a/]	4a'/
4A\	4c#\ 4e\	4A/ 4g/	4b'\	4g\ 4dd\	4A\	.	.	.	4b'\
4A\	4c#\ 4e\	4A/ 4g/	4cc#'\	4g\ 4dd\	4A\	.	.	.	4cc#'\
=5	=5	=5	=5	=5	=5	=5	=5	=5	=5
4d\	4d\	4A/ 4f#/	4dd'\	4cc\ 4ee\	4d\	[2.a/	[2.f/	[2.a/	4dd'\
4A\	4d\	4A/ 4f#/	4ff#'\	4cc\ 4ee\	4A\	.	.	.	4ff#'\
4F#\	4d\	4A/ 4f#/	4aa'\	4cc\ 4ee\	4F#\	.	.	.	4aa'\
=6	=6	=6	=6	=6	=6	=6	=6	=6	=6
4D\	4d\	4A/ 4f#/	4ddd'\	4cc\ 4ee\	4D\	2.a/]	2.f/]	2.a/]	4ddd'\
4r	4d\	4A/ 4f#/	4r	4cc\ 4ee\	4r	.	.	.	4r
4r	4d\	4A/ 4f#/	4aa'\	4cc\ 4ee\	4r	.	.	.	4aa'\
=7	=7	=7	=7	=7	=7	=7	=7	=7	=7
4A\	4c#\ 4e\	4A/ 4g/	(8bb\L	4g\ 4dd\	4A\	[2.b-\	(8dd\L	[2.cc#\	(8bb\L
.	.	.	8aa\	.	.	.	8cc\)	.	8aa\
4A\	4c#\ 4e\	4A/ 4g/	(8bb\)	4g\ 4dd\	4A\	.	(8dd\	.	(8bb\)
.	.	.	8aa\	.	.	.	8cc\)	.	8aa\
4A\	4c#\ 4e\	4A/ 4g/	(8bb\)	4g\ 4dd\	4A\	.	(8dd\	.	(8bb\)
.	.	.	8aa\J)	.	.	.	8cc\J)	.	8aa\J
=8	=8	=8	=8	=8	=8	=8	=8	=8	=8
4A\	4c#\ 4e\	4A/ 4g/	(8bb\L	4g\ 4dd\	4A\	2.b-\]	(8dd\L	2.cc#\]	(8bb\L)
.	.	.	8aa\	.	.	.	8cc\)	.	8aa\
4A\	4c#\ 4e\	4A/ 4g/	(8bb\)	4g\ 4dd\	4A\	.	(8dd\	.	(8bb\)
.	.	.	8aa\	.	.	.	8cc\)	.	8aa\
4A\	4c#\ 4e\	4A/ 4g/	(8bb\)	4g\ 4dd\	4A\	.	(8dd\	.	(8bb\)
.	.	.	8aa\J)	.	.	.	8cc\J)	.	8aa\J)
=9	=9	=9	=9	=9	=9	=9	=9	=9	=9
4d\	4d\	4A/ 4f#/	8ddd\L	4cc\ 4ee\	4d\	[2.a/	8ff\L	[2.dd\	8ddd\L
.	.	.	8ccc#\	.	.	.	8ee\	.	8ccc#\
4d\	4d\	4A/ 4f#/	8bb\	4cc\ 4ee\	4d\	.	8dd\	.	8bb\
.	.	.	8aa\	.	.	.	8cc\	.	8aa\
4d\	4d\	4A/ 4f#/	8gg\	4cc\ 4ee\	4d\	.	8b-\	.	8gg\
.	.	.	8ff#\J	.	.	.	8a\J	.	8ff#\J
=10	=10	=10	=10	=10	=10	=10	=10	=10	=10
4d\	4d\	4A/ 4f#/	8bb\L	4cc\ 4ee\	4d\	2.a/]	8dd/L	2.dd\]	8bb\L
.	.	.	8aa\	.	.	.	8cc/	.	8aa\
4d\	4d\	4A/ 4f#/	8gg\	4cc\ 4ee\	4d\	.	8b-/	.	8gg\
.	.	.	8ff#\	.	.	.	8a/	.	8ff#\
4d\	4d\	4A/ 4f#/	8ee\	4cc\ 4ee\	4d\	.	8g/	.	8ee\
.	.	.	8dd\J	.	.	.	8f/J	.	8dd\J
=11	=11	=11	=11	=11	=11	=11	=11	=11	=11
4A\	4c#\ 4e\	4A/ 4g/	4a'/	4g\ 4dd\	4A\	[2.b-\	[2.g/	[2.a/	4a'/
4A\	4c#\ 4e\	4A/ 4g/	4b'\	4g\ 4dd\	4A\	.	.	.	4b'\
4A\	4c#\ 4e\	4A/ 4g/	4cc#'\	4g\ 4dd\	4A\	.	.	.	4cc#'\
=12	=12	=12	=12	=12	=12	=12	=12	=12	=12
4A\	4c#\ 4e\	4A/ 4g/	4a'/	4g\ 4dd\	4A\	(2b-\]	2.g/]	2.a/]	4a'/
4A\	4c#\ 4e\	4A/ 4g/	4b'\	4g\ 4dd\	4A\	.	.	.	4b'\
4A\	4c#\ 4e\	4A/ 4g/	4cc#'\	4g\ 4dd\	4A\	4g/)	.	.	4cc#'\
=13	=13	=13	=13	=13	=13	=13	=13	=13	=13
4d\	4d\	4A/ 4f#/	4dd'\	4cc\ 4ee\	4d\	[2.f/	[2.a/	[2.a/	4dd'\
4A\	4d\	4A/ 4f#/	4ff#'\	4cc\ 4ee\	4A\	.	.	.	4ff#'\
4F#\	4d\	4A/ 4f#/	4aa'\	4cc\ 4ee\	4F#\	.	.	.	4aa'\
=14	=14	=14	=14	=14	=14	=14	=14	=14	=14
4D\	4d\	4A/ 4f#/	4ddd'\	4cc\ 4ee\	4D\	4f/]	4a/]	4a/]	4ddd'\
4r	4r	4r	4r	4r	4r	4r	4r	4r	4r
4r	4a'\	4ff#'\	4aa'\	4r	4r	4cc'\	4aa'\	4ff#'\	(4aa'\
=15	=15	=15	=15	=15	=15	=15	=15	=15	=15
8D\L	4b'\	4gg'\	4bb'\	(2.c/ [2.cc/	[2.d\	(2.dd\	(2.bb-\	(2.gg\	(2.bb\)
8d\J	.	.	.	.	.	.	.	.	.
8d\L	4dd'\	4bb'\	4ddd'\	.	.	.	.	.	.
8d\J	.	.	.	.	.	.	.	.	.
8d\L	4b'\	4gg'\	4bb'\	.	.	.	.	.	.
8d\J	.	.	.	.	.	.	.	.	.
=16	=16	=16	=16	=16	=16	=16	=16	=16	=16
8d\L	4a'\	4ff#'\	4aa'\	2.c/ 2.cc/])	2.d\]	2.cc\)	2aa\	2ff#\	2.aa\)
8d\J	.	.	.	.	.	.	.	.	.
8d\L	4r	4r	4r	.	.	.	.	.	.
8d\J	.	.	.	.	.	.	.	.	.
8d\L	4f#'\	4dd'\	4ff#'\	.	.	.	4ff\)	4dd\)	.
8d\J	.	.	.	.	.	.	.	.	.
=17	=17	=17	=17	=17	=17	=17	=17	=17	=17
8d\L	4g'\	4b'\	4gg'\	(2.c/ [2.cc/	[2.d\	(2.b-\	(2.dd\	(2.b\	(2.gg\
8d\J	.	.	.	.	.	.	.	.	.
8d\L	4b'\	4dd'\	4bb'\	.	.	.	.	.	.
8d\J	.	.	.	.	.	.	.	.	.
8d\L	4g'\	4b'\	4gg'\	.	.	.	.	.	.
8d\J	.	.	.	.	.	.	.	.	.
=18	=18	=18	=18	=18	=18	=18	=18	=18	=18
8d\L	4f#'\	4a'/	4ff#'\	2.c/ 2.cc/])	2.d\]	2.a/)	2.cc\)	2.a/)	2.ff#\)
8d\J	.	.	.	.	.	.	.	.	.
8d\L	4d'\	4f#'/	4r	.	.	.	.	.	.
8d\J	.	.	.	.	.	.	.	.	.
8d\L	4d'\	4f#'/	4ff#'\	.	.	.	.	.	.
8d\J	.	.	.	.	.	.	.	.	.
=19	=19	=19	=19	=19	=19	=19	=19	=19	=19
8A\L	4c#\	4g/	4ee'\	2g\ 2dd\	[2.A\	[2.b-\	4gg'\	[2.a/	4ee'\
8A\J	.	.	.	.	.	.	.	.	.
8A\L	4c#\	4g/	4ff#'\	.	.	.	4aa'\	.	4ff#'\
8A\J	.	.	.	.	.	.	.	.	.
8A\L	4c#\	4g/	4gg'\	4g\ 4dd\	.	.	4bb-'\	.	4gg'\
8A\J	.	.	.	.	.	.	.	.	.
=20	=20	=20	=20	=20	=20	=20	=20	=20	=20
8A\L	4e\	4g/	4a'/	2g\ 2dd\	2.A\]	2.b-\]	4cc'\	2.a/]	4a'/
8A\J	.	.	.	.	.	.	.	.	.
8A\L	4e\	4g/	4b'\	.	.	.	4dd'\	.	4b'\
8A\J	.	.	.	.	.	.	.	.	.
8A\L	4e\	4g/	4cc#'\	4g\ 4dd\	.	.	4ee'\	.	4cc#'\
8A\J	.	.	.	.	.	.	.	.	.
=21	=21	=21	=21	=21	=21	=21	=21	=21	=21
4d'\	4d\	4f#/	4dd'\	2e/ 2cc/	4d'\	[2.a/	[2.ff\	[2.a'/	4dd'\
4A'\	4d\	4f#/	4ff#'\	.	4A'\	.	.	.	4ff#'\
4F#'\	4d\	4f#/	4aa'\	4e/ 4cc/	4F#'\	.	.	.	4aa'\
=22	=22	=22	=22	=22	=22	=22	=22	=22	=22
4D'\	4d\	4f#/	4ddd'\	4e/ 4cc/	4D'\	4a/]	4ff\]	4a/]	4ddd'\
4d'\	4d\	4f#/	4r	4r	4d'\	4r	4r	4r	4r
4d'\	4a'\	4ff#'\	4aa'\	4r	4d'\	4cc'\	4aa'\	4ff#'\	4aa'\
=23	=23	=23	=23	=23	=23	=23	=23	=23	=23
8D\L	4b'\	4gg'\	4bb'\	(2.c/ [2.cc/	[2.d\	(2.dd\	(2.bb-\	(2.gg\	(2.bb\
8d\J	.	.	.	.	.	.	.	.	.
8d\L	4dd'\	4bb'\	4ddd'\	.	.	.	.	.	.
8d\J	.	.	.	.	.	.	.	.	.
8d\L	4b'\	4gg'\	4bb'\	.	.	.	.	.	.
8d\J	.	.	.	.	.	.	.	.	.
=24	=24	=24	=24	=24	=24	=24	=24	=24	=24
8d\L	4a'\	4ff#'\	4aa'\	2.c/ 2.cc/])	2.d\]	2.cc\)	2aa\	2ff#\	2.aa\)
8d\J	.	.	.	.	.	.	.	.	.
8d\L	4r	4r	4r	.	.	.	.	.	.
8d\J	.	.	.	.	.	.	.	.	.
8d\L	4f#'\	4dd'\	4ff#'\	.	.	.	4ff\)	4dd\)	.
8d\J	.	.	.	.	.	.	.	.	.
=25	=25	=25	=25	=25	=25	=25	=25	=25	=25
8d\L	4g'\	4b'\	4gg'\	2.c/ 2.cc/	2.d\	2.b-\	2.dd\	2.b\	2.gg\
8d\J	.	.	.	.	.	.	.	.	.
8d\L	4b'\	4dd'\	4bb'\	.	.	.	.	.	.
8d\J	.	.	.	.	.	.	.	.	.
8d\L	4g'\	4b'\	4gg'\	.	.	.	.	.	.
8d\J	.	.	.	.	.	.	.	.	.
*-	*-	*-	*-	*-	*-	*-	*-	*-	*-
